src/assets/icons/icon_location_white.svg

<svg width="16" height="16" viewBox="0 0 16 16" fill="none" xmlns="http://www.w3.org/2000/svg">
<path d="M7.82 1C10.4755 1 12.64 3.05958 12.64 5.61C12.64 7.84165 10.9023 10.9792 8.60675 14.0789C8.42361 14.3305 8.13119 14.4794 7.82 14.4794C7.50881 14.4794 7.21639 14.3305 7.03562 14.0822C4.73775 10.9779 3 7.83997 3 5.61C3 3.05958 5.16454 1 7.82 1ZM7.82 3.88C6.74857 3.88 5.88 4.74857 5.88 5.82C5.88 6.89143 6.74857 7.76 7.82 7.76C8.89143 7.76 9.76 6.89143 9.76 5.82C9.76 4.74857 8.89143 3.88 7.82 3.88Z" fill="#ffffff"/>
</svg>

<?xml version="1.0" encoding="UTF-8" standalone="no"?>
<!DOCTYPE svg PUBLIC "-//W3C//DTD SVG 1.1//EN" "http://www.w3.org/Graphics/SVG/1.1/DTD/svg11.dtd">
<svg width="16" height="16" viewBox="0 0 16 16" version="1.1" xmlns="http://www.w3.org/2000/svg" xmlns:xlink="http://www.w3.org/1999/xlink" xml:space="preserve" xmlns:serif="http://www.serif.com/" style="fill-rule:evenodd;clip-rule:evenodd;stroke-linejoin:round;stroke-miterlimit:1.41421;">
    <path fill="#fff" d="M7.82 1c2.655 0 4.82 2.06 4.82 4.61 0 2.232-1.738 5.37-4.033 8.469-.183.252-.476.4-.787.4-.311 0-.604-.148-.784-.397C4.738 10.978 3 7.84 3 5.61 3 3.06 5.165 1 7.82 1zm0 2.88c-1.071 0-1.94.869-1.94 1.94s.869 1.94 1.94 1.94 1.94-.869 1.94-1.94-.869-1.94-1.94-1.94z" style="fill-rule:nonzero;"/>
</svg>
